Hatter-kde/actions/16/player-time.svg

<svg xmlns="http://www.w3.org/2000/svg" viewBox="0 0 16 16">
  <defs id="defs3051">
    <style type="text/css" id="current-color-scheme">
      .ColorScheme-Text {
        color:#363636;
      }
      </style>
  </defs>
 <path 
     style="fill:currentColor;fill-opacity:1;stroke:none" 
     d="M 5.2597656 2.5996094 C 3.8884717 3.200699 2.7475734 4.2193554 2.0058594 5.5058594 L 2.8710938 6.0058594 C 3.5060937 4.9048594 4.4812969 4.0345313 5.6542969 3.5195312 L 5.2597656 2.5996094 z M 10.75 2.5996094 L 10.355469 3.5195312 C 11.528469 4.0345313 12.503672 4.9048594 13.138672 6.0058594 L 14.005859 5.5058594 C 13.264145 4.2193554 12.121294 3.200699 10.75 2.5996094 z M 8.0039062 4 A 5 5 0 0 0 3.0039062 9 A 5 5 0 0 0 8.0039062 14 A 5 5 0 0 0 13.003906 9 A 5 5 0 0 0 8.0039062 4 z M 8.0039062 5 A 4 4 0 0 1 12.003906 9 A 4 4 0 0 1 8.0039062 13 A 4 4 0 0 1 4.0039062 9 A 4 4 0 0 1 8.0039062 5 z M 6.5 6.5 L 6.5 11.5 L 10 9 L 6.5 6.5 z "
     class="ColorScheme-Text"/>
</svg>

<?xml version="1.0" encoding="UTF-8"?>
<svg viewBox="0 0 16 16" xmlns="http://www.w3.org/2000/svg">
 <defs id="defs3051">
  <style id="current-color-scheme" type="text/css">.ColorScheme-Text {
        color:#363636;
      }</style>
 </defs>
 <path class="ColorScheme-Text" d="m5.2598 2.5996c-1.3713 0.60109-2.5122 1.6197-3.2539 2.9062l0.86523 0.5c0.635-1.101 1.6102-1.9713 2.7832-2.4863l-0.39453-0.91992zm5.4902 0-0.39453 0.91992c1.173 0.515 2.1482 1.3853 2.7832 2.4863l0.86719-0.5c-0.74171-1.2865-1.8846-2.3052-3.2559-2.9062zm-2.7461 1.4004a5 5 0 0 0-5 5 5 5 0 0 0 5 5 5 5 0 0 0 5-5 5 5 0 0 0-5-5zm0 1a4 4 0 0 1 4 4 4 4 0 0 1-4 4 4 4 0 0 1-4-4 4 4 0 0 1 4-4zm-1.5039 1.5v5l3.5-2.5-3.5-2.5z" fill="currentColor"/>
</svg>
